actions/22x22-dark/kdenlive-insert-rect.svg

<svg xmlns="http://www.w3.org/2000/svg" viewBox="0 0 22 22">
 <defs id="defs3051">
   <style type="text/css" id="current-color-scheme">
     .ColorScheme-Text {
       color:#f2f2f2;
     }
     </style>
 </defs>
   <path
      style="fill:currentColor;fill-opacity:1;stroke:none"
      d="m5 4c-1.108 0-2 .892-2 2v8c0 1.108.892 2 2 2h8v-2-1h6v-7c0-1.108-.892-2-2-2zm11 10v2h-2v1h2v2h1v-2h2v-1h-2v-2z"
      class="ColorScheme-Text" />
</svg>

<svg xmlns="http://www.w3.org/2000/svg" viewBox="0 0 22 22">
  <defs id="defs3051">
    <style type="text/css" id="current-color-scheme">
      .ColorScheme-Text {
        color:#f2f2f2;
      }
      </style>
  </defs>
 <path 
     style="fill:currentColor;fill-opacity:1;stroke:none" 
     d="M 5 4 C 3.892 4 3 4.892 3 6 L 3 14 C 3 15.108 3.892 16 5 16 L 13 16 L 13 14 L 13 13 L 19 13 L 19 6 C 19 4.892 18.108 4 17 4 L 5 4 z M 16 14 L 16 16 L 14 16 L 14 17 L 16 17 L 16 19 L 17 19 L 17 17 L 19 17 L 19 16 L 17 16 L 17 14 L 16 14 z "
     class="ColorScheme-Text"
     />
</svg>
